sass/icons/active-symbols/volatility/crash50 index/crash50 index.svg

<svg width="32" height="32" viewBox="0 0 32 32" fill="none" xmlns="http://www.w3.org/2000/svg">
<path d="M0 14.5856L6.99995 7.58568L9.99995 10.5857L17 3.58568L20 6.58568L26 0.585684V3.41411L20 9.41411L17 6.41411L9.99995 13.4141L6.99995 10.4141L0 17.4141V14.5856Z" fill="#0AA0B0"/>
<path d="M27.0001 22L31.7072 17.2929L30.293 15.8787L28.0001 18.1716L28.0001 9.53674e-06H26.5858L26.0001 0.585752L26.0001 18.1716L23.7072 15.8787L22.293 17.2929L27.0001 22Z" fill="#FF444F"/>
<path d="M10.064 28.728C9.94131 28.9627 9.71998 29.08 9.39998 29.08C9.07998 29.08 8.85865 28.9627 8.73598 28.728C8.61331 28.4933 8.55198 28.1627 8.55198 27.736V26.68C8.55198 26.2533 8.61331 25.9227 8.73598 25.688C8.85865 25.4533 9.07998 25.336 9.39998 25.336C9.71998 25.336 9.94131 25.4533 10.064 25.688C10.1866 25.9227 10.248 26.2533 10.248 26.68V27.736C10.248 28.1627 10.1866 28.4933 10.064 28.728Z" fill="#414652"/>
<path fill-rule="evenodd" clip-rule="evenodd" d="M2 22C0.895431 22 0 22.8954 0 24V30C0 31.1046 0.89543 32 2 32H12C13.1046 32 14 31.1046 14 30V24C14 22.8954 13.1046 22 12 22H2ZM7.77598 29.336C8.12798 29.8427 8.66931 30.096 9.39998 30.096C10.1306 30.096 10.672 29.8427 11.024 29.336C11.376 28.8293 11.552 28.12 11.552 27.208C11.552 26.296 11.376 25.5867 11.024 25.08C10.672 24.5733 10.1306 24.32 9.39998 24.32C8.66931 24.32 8.12798 24.5733 7.77598 25.08C7.42398 25.5867 7.24798 26.296 7.24798 27.208C7.24798 28.12 7.42398 28.8293 7.77598 29.336ZM3.84311 25.464H6.37911V24.416H2.96311L2.75511 27.576L3.73911 27.712C3.81377 27.6267 3.92044 27.5413 4.05911 27.456C4.20311 27.3653 4.38444 27.32 4.60311 27.32C4.86444 27.32 5.06977 27.3947 5.21911 27.544C5.36844 27.6933 5.44311 27.896 5.44311 28.152V28.216C5.44311 28.488 5.36844 28.7067 5.21911 28.872C5.07511 29.0373 4.85911 29.12 4.57111 29.12C4.28311 29.12 4.05377 29.0453 3.88311 28.896C3.71244 28.7413 3.56577 28.5547 3.44311 28.336L2.57111 29.024C2.65644 29.168 2.75777 29.304 2.87511 29.432C2.99244 29.56 3.13111 29.6747 3.29111 29.776C3.45111 29.872 3.63511 29.9493 3.84311 30.008C4.05111 30.0667 4.29111 30.096 4.56311 30.096C4.90444 30.096 5.20844 30.048 5.47511 29.952C5.74177 29.8507 5.96577 29.712 6.14711 29.536C6.33377 29.36 6.47244 29.152 6.56311 28.912C6.65911 28.6667 6.70711 28.4027 6.70711 28.12C6.70711 27.8427 6.66177 27.5947 6.57111 27.376C6.48044 27.152 6.35777 26.9653 6.20311 26.816C6.04844 26.6613 5.86711 26.544 5.65911 26.464C5.45111 26.384 5.22711 26.344 4.98711 26.344C4.81111 26.344 4.65911 26.3653 4.53111 26.408C4.40311 26.4507 4.29377 26.512 4.20311 26.592C4.11244 26.6667 4.03244 26.76 3.96311 26.872C3.89911 26.9787 3.84044 27.0987 3.78711 27.232H3.72311L3.84311 25.464Z" fill="#414652"/>
<path d="M6.37911 25.464H3.84311L3.72311 27.232H3.78711C3.84044 27.0987 3.89911 26.9787 3.96311 26.872C4.03244 26.76 4.11244 26.6667 4.20311 26.592C4.29377 26.512 4.40311 26.4507 4.53111 26.408C4.65911 26.3653 4.81111 26.344 4.98711 26.344C5.22711 26.344 5.45111 26.384 5.65911 26.464C5.86711 26.544 6.04844 26.6613 6.20311 26.816C6.35777 26.9653 6.48044 27.152 6.57111 27.376C6.66177 27.5947 6.70711 27.8427 6.70711 28.12C6.70711 28.4027 6.65911 28.6667 6.56311 28.912C6.47244 29.152 6.33377 29.36 6.14711 29.536C5.96577 29.712 5.74177 29.8507 5.47511 29.952C5.20844 30.048 4.90444 30.096 4.56311 30.096C4.29111 30.096 4.05111 30.0667 3.84311 30.008C3.63511 29.9493 3.45111 29.872 3.29111 29.776C3.13111 29.6747 2.99244 29.56 2.87511 29.432C2.75777 29.304 2.65644 29.168 2.57111 29.024L3.44311 28.336C3.56577 28.5547 3.71244 28.7413 3.88311 28.896C4.05377 29.0453 4.28311 29.12 4.57111 29.12C4.85911 29.12 5.07511 29.0373 5.21911 28.872C5.36844 28.7067 5.44311 28.488 5.44311 28.216V28.152C5.44311 27.896 5.36844 27.6933 5.21911 27.544C5.06977 27.3947 4.86444 27.32 4.60311 27.32C4.38444 27.32 4.20311 27.3653 4.05911 27.456C3.92044 27.5413 3.81377 27.6267 3.73911 27.712L2.75511 27.576L2.96311 24.416H6.37911V25.464Z" fill="white"/>
<path d="M9.39998 30.096C8.66931 30.096 8.12798 29.8427 7.77598 29.336C7.42398 28.8293 7.24798 28.12 7.24798 27.208C7.24798 26.296 7.42398 25.5867 7.77598 25.08C8.12798 24.5733 8.66931 24.32 9.39998 24.32C10.1306 24.32 10.672 24.5733 11.024 25.08C11.376 25.5867 11.552 26.296 11.552 27.208C11.552 28.12 11.376 28.8293 11.024 29.336C10.672 29.8427 10.1306 30.096 9.39998 30.096ZM9.39998 29.08C9.71998 29.08 9.94131 28.9627 10.064 28.728C10.1866 28.4933 10.248 28.1627 10.248 27.736V26.68C10.248 26.2533 10.1866 25.9227 10.064 25.688C9.94131 25.4533 9.71998 25.336 9.39998 25.336C9.07998 25.336 8.85865 25.4533 8.73598 25.688C8.61331 25.9227 8.55198 26.2533 8.55198 26.68V27.736C8.55198 28.1627 8.61331 28.4933 8.73598 28.728C8.85865 28.9627 9.07998 29.08 9.39998 29.08Z" fill="white"/>
</svg>

<svg xmlns="http://www.w3.org/2000/svg" width="32" height="32" fill="none"><path fill="#0AA0B0" d="m0 14.586 7-7 3 3 7-7 3 3 6-6v2.828l-6 6-3-3-7 7-3-3-7 7z"/><path fill="#FF444F" d="m27 22 4.707-4.707-1.414-1.414L28 18.172V0h-1.414L26 .586v17.586l-2.293-2.293-1.414 1.414z"/><path fill="#414652" d="M10.064 28.728q-.184.352-.664.352t-.664-.352-.184-.992V26.68q0-.64.184-.992t.664-.352.664.352.184.992v1.056q0 .64-.184.992"/><path fill="#414652" fill-rule="evenodd" d="M2 22a2 2 0 0 0-2 2v6a2 2 0 0 0 2 2h10a2 2 0 0 0 2-2v-6a2 2 0 0 0-2-2zm5.776 7.336q.528.76 1.624.76t1.624-.76.528-2.128-.528-2.128-1.624-.76-1.624.76-.528 2.128.528 2.128m-3.933-3.872H6.38v-1.048H2.963l-.208 3.16.984.136q.112-.127.32-.256.216-.135.544-.136.392 0 .616.224t.224.608v.064q0 .407-.224.656-.216.248-.648.248t-.688-.224a2.2 2.2 0 0 1-.44-.56l-.872.688q.128.216.304.408t.416.344q.24.144.552.232t.72.088q.511 0 .912-.144.4-.152.672-.416.28-.264.416-.624.144-.368.144-.792 0-.416-.136-.744a1.6 1.6 0 0 0-.912-.912 1.9 1.9 0 0 0-.672-.12q-.264 0-.456.064a.9.9 0 0 0-.328.184q-.135.112-.24.28a2.5 2.5 0 0 0-.176.36h-.064z" clip-rule="evenodd"/><path fill="#fff" d="M6.38 25.464H3.842l-.12 1.768h.064q.08-.2.176-.36.105-.168.24-.28.136-.12.328-.184t.456-.064q.36 0 .672.12t.544.352a1.6 1.6 0 0 1 .368.56q.135.328.136.744 0 .424-.144.792-.136.36-.416.624a1.9 1.9 0 0 1-.672.416q-.4.144-.912.144a2.7 2.7 0 0 1-.72-.088 2.3 2.3 0 0 1-.552-.232 2 2 0 0 1-.416-.344 2.5 2.5 0 0 1-.304-.408l.872-.688a2.2 2.2 0 0 0 .44.56q.256.224.688.224t.648-.248q.224-.248.224-.656v-.064q0-.384-.224-.608-.225-.224-.616-.224-.328 0-.544.136-.208.127-.32.256l-.984-.136.208-3.16H6.38zM9.4 30.096q-1.096 0-1.624-.76t-.528-2.128.528-2.128 1.624-.76 1.624.76.528 2.128-.528 2.128-1.624.76m0-1.016q.48 0 .664-.352t.184-.992V26.68q0-.64-.184-.992t-.664-.352-.664.352-.184.992v1.056q0 .64.184.992t.664.352"/></svg>
